flaticon/constructions/shovel-1.svg

<svg xmlns="http://www.w3.org/2000/svg" width="32" height="32" viewBox="0 0 24 24">
    <path d="M 13.601562 14.398438 L 13.601562 12.398438 L 13.199219 12.398438 L 13.199219 5.484375 C 14.363281 5.144531 15.199219 4.082031 15.199219 2.800781 L 15.199219 0.800781 L 14 0.800781 L 14 0 L 10 0 L 10 0.800781 L 8.800781 0.800781 L 8.800781 2.800781 C 8.800781 4.082031 9.636719 5.144531 10.800781 5.484375 L 10.800781 12.398438 L 10.398438 12.398438 L 10.398438 14.398438 L 7.199219 14.398438 L 7.199219 21.039062 L 11.878906 24 L 12.160156 24 L 16.800781 21 L 16.800781 14.398438 Z M 10.800781 0.800781 L 13.199219 0.800781 L 13.199219 1.601562 L 10.800781 1.601562 Z M 9.601562 2.800781 L 9.601562 1.601562 L 10 1.601562 L 10 2.398438 L 14 2.398438 L 14 1.601562 L 14.398438 1.601562 L 14.398438 2.800781 C 14.398438 3.714844 13.8125 4.472656 12.984375 4.714844 L 12.71875 4.761719 C 12.671875 4.777344 12.632812 4.785156 12.59375 4.789062 C 12.527344 4.796875 12.464844 4.800781 12.398438 4.800781 L 11.601562 4.800781 C 11.546875 4.800781 11.492188 4.796875 11.441406 4.792969 C 11.390625 4.789062 11.335938 4.777344 11.28125 4.761719 L 11.015625 4.714844 C 10.1875 4.472656 9.601562 3.714844 9.601562 2.800781 Z M 11.601562 5.601562 L 12.398438 5.601562 L 12.398438 12.398438 L 11.601562 12.398438 Z M 11.199219 13.199219 L 12.800781 13.199219 L 12.800781 14.398438 L 11.199219 14.398438 Z M 8 15.199219 L 16 15.199219 L 16 18.601562 L 12 21.160156 L 8 18.601562 Z M 16 20.601562 L 12 23.160156 L 8 20.601562 L 8 19.546875 L 11.878906 22 L 12.160156 22 L 16 19.550781 Z M 16 20.601562"/>
    <path d="M 13.601562 16.359375 L 13.601562 16 C 13.601562 15.761719 13.441406 15.601562 13.199219 15.601562 C 12.960938 15.601562 12.800781 15.761719 12.800781 16 L 12.800781 16.359375 C 12.800781 16.601562 12.601562 16.800781 12.359375 16.800781 L 11.640625 16.800781 C 11.398438 16.800781 11.199219 16.601562 11.199219 16.359375 L 11.199219 16 C 11.199219 15.761719 11.039062 15.601562 10.800781 15.601562 C 10.558594 15.601562 10.398438 15.761719 10.398438 16 L 10.398438 16.359375 C 10.398438 17.039062 10.960938 17.601562 11.640625 17.601562 L 12.359375 17.601562 C 13.039062 17.601562 13.601562 17.039062 13.601562 16.359375 Z M 13.601562 16.359375"/>
</svg>

<svg xmlns="http://www.w3.org/2000/svg" width="32" height="32" viewBox="0 0 24 24">
    <path d="M13.602 14.398v-2h-.403V5.484c1.164-.34 2-1.402 2-2.683v-2H14V0h-4v.8H8.8v2c0 1.282.837 2.345 2 2.684v6.914h-.402v2H7.2v6.641L11.88 24h.281l4.64-3v-6.602zM10.8.801h2.398v.8h-2.398zm-1.2 2V1.6H10v.797h4v-.796h.398V2.8c0 .914-.585 1.672-1.414 1.914l-.265.047a.558.558 0 0 1-.125.027 1.638 1.638 0 0 1-.196.012h-.796c-.055 0-.11-.004-.16-.008a.827.827 0 0 1-.16-.031l-.266-.047A1.971 1.971 0 0 1 9.602 2.8zm2 2.8h.797v6.797h-.796zM11.2 13.2h1.602v1.2h-1.602zM8 15.2h8v3.403l-4 2.558-4-2.558zm8 5.403l-4 2.558-4-2.558v-1.055L11.879 22h.281L16 19.55zm0 0"/>
    <path d="M13.602 16.36V16c0-.238-.16-.398-.403-.398-.238 0-.398.16-.398.398v.36c0 .242-.2.44-.442.44h-.718a.443.443 0 0 1-.442-.44V16c0-.238-.16-.398-.398-.398-.242 0-.403.16-.403.398v.36c0 .68.563 1.242 1.243 1.242h.718a1.25 1.25 0 0 0 1.243-1.243zm0 0"/>
</svg>
